icons/ArrowLeftNarrow_filled.svg

<svg width="24" height="24" viewBox="0 0 24 24" fill="none" xmlns="http://www.w3.org/2000/svg">
<path fill-rule="evenodd" clip-rule="evenodd" d="M4.11612,12.8839c-0.48816,-0.4882 -0.48816,-1.2796 0,-1.7678l4,-3.99999c0.48815,-0.48815 1.27961,-0.48815 1.76776,0c0.48812,0.48816 0.48812,1.27961 0,1.76777l-1.86611,1.86612h10.98223c0.6904,0 1.25,0.5596 1.25,1.25c0,0.6904 -0.5596,1.25 -1.25,1.25h-10.98223l1.86611,1.8661c0.48812,0.4882 0.48812,1.2796 0,1.7678c-0.48815,0.4881 -1.27961,0.4881 -1.76776,0z" fill="#002B51"/>
</svg>

<svg width="24" height="24" viewBox="0 0 24 24" fill="none" xmlns="http://www.w3.org/2000/svg">
<path fill-rule="evenodd" clip-rule="evenodd" d="M4.11612 12.8839C3.62796 12.3957 3.62796 11.6043 4.11612 11.1161L8.11612 7.11611C8.60427 6.62796 9.39573 6.62796 9.88388 7.11611C10.372 7.60427 10.372 8.39572 9.88388 8.88388L8.01777 10.75L19 10.75C19.6904 10.75 20.25 11.3096 20.25 12C20.25 12.6904 19.6904 13.25 19 13.25L8.01777 13.25L9.88388 15.1161C10.372 15.6043 10.372 16.3957 9.88388 16.8839C9.39573 17.372 8.60427 17.372 8.11612 16.8839L4.11612 12.8839Z" fill="#002B51"/>
</svg>
